X: 1
T: the Reconciliation Reel
T: the Olive Branch Hornpipe
T: Humphrey's Reel
T: Crannciuil Umfrei
O: Ryans 1883
R: reel
B: BSFC Tune Book XI-25
D: Matt Molloy & Sean Keane: Contentment is Wealth.
B: O'Neill's 1850 (hornpipe)
B: Ryan’s "Mammoth Collection", 1883, titled “The Olive Branch”
Z: 2016 John Chambers <jc:trillian.mit.edu>
M: C|
L: 1/8
K: A
E2 |\
"A"A2 c{B}A eAfA | "A"eAfA "E7"ecBc | "A"A2 c{B}A eAfA | "(D)"ecBc "E7"AFEF |
y3 |\
"A"A2 c{B}A eAfA | "A"eAfA "E7"ecBc | "A"ABAF "Bm"EAdf | "E7"ecBc "A"A4 :|
|: cB |\
"A"A2{B}ce a3f | "A"efed "E7"cdBc | "A"A2{B}ce "F#m"a3g | "Bm"fbbg "E7"agfe |
y3 |\
"A"a2{g}ae f{g}aec | "D"dBcA "E7"BAFG | "F#m"ABAF "Bm(D)"EAdf | "E7"ecBc "A"A4 :|
